icons/numix/32x32/mimetypes/application-x-trash.svg

<?xml version="1.0" encoding="UTF-8" standalone="no"?>
<svg
   xmlns:dc="http://purl.org/dc/elements/1.1/"
   xmlns:cc="http://creativecommons.org/ns#"
   xmlns:rdf="http://www.w3.org/1999/02/22-rdf-syntax-ns#"
   xmlns:svg="http://www.w3.org/2000/svg"
   xmlns="http://www.w3.org/2000/svg"
   xmlns:sodipodi="http://sodipodi.sourceforge.net/DTD/sodipodi-0.dtd"
   xmlns:inkscape="http://www.inkscape.org/namespaces/inkscape"
   width="32"
   height="32"
   viewBox="0 0 32 32"
   id="svg2"
   version="1.1"
   inkscape:version="0.48.5 r10040"
   sodipodi:docname="application-x-trash.svg">
  <metadata
     id="metadata22">
    <rdf:RDF>
      <cc:Work
         rdf:about="">
        <dc:format>image/svg+xml</dc:format>
        <dc:type
           rdf:resource="http://purl.org/dc/dcmitype/StillImage" />
      </cc:Work>
    </rdf:RDF>
  </metadata>
  <defs
     id="defs20" />
  <sodipodi:namedview
     pagecolor="#ffffff"
     bordercolor="#666666"
     borderopacity="1"
     objecttolerance="10"
     gridtolerance="10"
     guidetolerance="10"
     inkscape:pageopacity="0"
     inkscape:pageshadow="2"
     inkscape:window-width="1280"
     inkscape:window-height="970"
     id="namedview18"
     showgrid="true"
     inkscape:zoom="11.313709"
     inkscape:cx="16.155017"
     inkscape:cy="15.927446"
     inkscape:window-x="0"
     inkscape:window-y="0"
     inkscape:window-maximized="1"
     inkscape:current-layer="svg2">
    <inkscape:grid
       type="xygrid"
       id="grid3010" />
  </sodipodi:namedview>
  <path
     style="fill:#dcdcdc;fill-opacity:1"
     d="M 5.335888,2.97e-4 C 4.648414,3.12e-4 4,0.6767879 4,1.3940312 L 4,30.606268 C 4,31.282757 4.687474,32 5.335888,32 l 21.327332,0 c 0.648414,0 1.335888,-0.717243 1.335888,-1.393732 L 28,8.9999997 l -9,-9 z"
     id="path4-1"
     inkscape:connector-curvature="0"
     sodipodi:nodetypes="ssssssccs" />
  <path
     style="fill:#000000;fill-opacity:0.19599998"
     d="M 21,8.9999997 28,16 28,8.9999997 z"
     id="path6-4"
     inkscape:connector-curvature="0"
     sodipodi:nodetypes="cccc" />
  <path
     style="fill:#ffffff;fill-opacity:0.39200003"
     d="m 19.000306,2.97e-4 8.991594,8.9997027 -7.613262,0 c -0.672951,0 -1.378332,-0.7134896 -1.378332,-1.3864402 z"
     id="path8-6"
     inkscape:connector-curvature="0"
     sodipodi:nodetypes="ccssc" />
  <g
     style="fill:#888888"
     id="g10"
     transform="matrix(1,0,0,1.0351477,-1e-8,-0.0385448)">
    <path
       d="m 15.425451,23.222333 0.0042,-3.429364 -3.125,0 0.542968,-0.917969 1,0 -1.449218,-2.441406 -3.167969,0 0.691406,0.386718 L 9,18.378906 l 2.476562,4.179688 0.238282,0.398437 0.168759,0.265302 z"
       id="path12"
       inkscape:connector-curvature="0"
       sodipodi:nodetypes="ccccccccccccc" />
    <path
       d="m 21.125,15.484375 -2.851562,1.605469 1.558593,2.632812 -1.085937,0 -0.5,-0.839844 -1.449219,2.441407 L 18.382812,24 l 0,-0.777344 1.84375,0 2.480469,-4.183594 0.234375,-0.394531 L 23,18.542969 z"
       id="path14"
       inkscape:connector-curvature="0" />
    <path
       d="M 11.585938,13.777344 14.4375,15.382812 16,12.746094 16.542969,13.664062 16,14.527922 l 2.932931,0 1.590507,-2.691984 -0.6875,0.386718 -0.925782,-1.558594 -5.542968,0 z"
       id="path16"
       inkscape:connector-curvature="0"
       sodipodi:nodetypes="ccccccccccc" />
  </g>
</svg>

<svg width="32" xmlns="http://www.w3.org/2000/svg" height="32" viewBox="0 0 32 32" xmlns:xlink="http://www.w3.org/1999/xlink">
<path style="fill:#dcdcdc" d="M 5.332031 0.667969 C 4.648438 0.667969 4 1.3125 4 2 L 4 30 C 4 30.648438 4.6875 31.332031 5.332031 31.332031 L 26.667969 31.332031 C 27.3125 31.332031 28 30.648438 28 30 L 28 9.332031 L 19.332031 0.667969 Z "/>
<path style="fill:#000;fill-opacity:.196" d="M 19.332031 8 L 19.375 8.042969 L 19.480469 8 Z M 20.667969 9.332031 L 28 16.667969 L 28 9.332031 Z "/>
<path style="fill:#fff;fill-opacity:.392" d="M 19.332031 0.667969 L 28 9.332031 L 20.667969 9.332031 C 20.019531 9.332031 19.332031 8.648438 19.332031 8 Z "/>
<g style="fill:#888">
<path d="M 15.429688 23.003906 L 15.429688 19.792969 L 12.304688 19.792969 L 12.847656 18.875 L 13.847656 18.875 L 12.398438 16.433594 L 9.230469 16.433594 L 9.921875 16.820312 L 9 18.378906 L 11.476562 22.558594 L 11.714844 22.957031 L 11.773438 23.054688 Z "/>
<path d="M 21.125 15.484375 L 18.273438 17.089844 L 19.832031 19.722656 L 18.746094 19.722656 L 18.246094 18.882812 L 16.796875 21.324219 L 18.382812 24 L 18.382812 23.222656 L 20.226562 23.222656 L 22.707031 19.039062 L 22.941406 18.644531 L 23 18.542969 Z "/>
<path d="M 11.585938 13.777344 L 14.4375 15.382812 L 16 12.746094 L 16.542969 13.664062 L 16.042969 14.507812 L 18.941406 14.507812 L 20.523438 11.835938 L 19.835938 12.222656 L 18.910156 10.664062 L 13.367188 10.664062 Z "/>
</g>
</svg>
